X:1
T:Dybt hælder Aaret i sin Gang
T:(Salmer og Aandelige Sange, no.11)
T:Carl Nielsen (FS83/11)
T:C. J. Boye (1791-1853)
T:Dybt hælder Aaret i sin Gang (Salmer og Aandelige Sange, no.11)
T:Copyright (c) 2007 by Choral Public Domain Library (http://www.cpdl.org). Edition may be freely distributed, duplicated, performed or recorded.
T:Copyright (c) 2007 by Choral Public Domain Library (http://www.cpdl.org). Edition may be freely distributed, duplicated, performed or recorded.
C:Carl Nielsen (FS83/11)
Z:C. J. Boye (1791-1853)
Z:Copyright (c) 2007 by Choral Public Domain Library (http://www.cpdl.org).
Z:Edition may be freely distributed, duplicated, performed or recorded.
%%score [ 1 2 3 4 ]
L:1/8
M:4/4
K:Bb
V:1 treble nm="S." snm="S."
V:2 treble nm="A." snm="A."
V:3 treble-8 transpose=-12 nm="T." snm="T."
V:4 bass nm="B." snm="B."
V:1
 G2 | F2 D2 G2 A2 | B2 A2 G2 A2 | B2 c2 A2 G2 | F6 F2 | B2 c2 d2 c2 | e2 d2 c2 d2 | B2 G2 G2 ^F2 | %8
w: Dybt|hæl- der Aa- ret|i sin Gang, snart|ø- des Eng og|Lund, far-|vel met al din|Lyst og Sang, du|kor- te Som- mer-|
 !fermata!G6 |] %9
w: stund!|
V:2
 E2 | D2 D2 E2 E2 | F2 F2 F2 E2 | D2 C2 C2 =E2 | C6 D2 | D2 G2 F2 F2 | G2 F2 E2 D2 | D2 E2 E2 D2 | %8
w: Dybt|hæl- der Aa- ret|i sin Gang, snart|ø- des Eng og|Lund, far-|vel met al din|Lyst og Sang, du|kor- te Som- mer-|
 !fermata!D6 |] %9
w: stund!|
V:3
 c2 | A2 B2 B2 c2 | d2 d2 B2 c2 | B2 G2 F2 c2 | A6 A2 | B2 G2 B2 A2 | c2 F2 G2 A2 | B2 B2 c2 A2 | %8
w: Dybt|hæl- der Aa- ret|i sin Gang, snart|ø- des Eng og|Lund, far-|vel met al din|Lyst og Sang, du|kor- te Som- mer-|
 !fermata!=B6 |] %9
w: stund!|
V:4
 C,2 | D,2 G,2 E,2 C,2 | B,,2 D,2 E,2 C,2 | G,2 =E,2 F,2 C,2 | F,6 D,2 | %5
w: Dybt|hæl- der Aa- ret|i sin Gang, snart|ø- des Eng og|Lund, far-|
 G,2"^1.2.3.4.""^Dybt hælder Aaret i sin Gang,snart ødes Eng og Lund,farvel med al din Lyst og Sang,du korte Sommerstund!Snart sukker Vinterstormens Røst:Alt visner og forgaar!Lad visne kun, jeg véd den Trøst,som ligefuldt bestaar.Lad Solen korte af sin Vejog Natten vokse til,Guds Vældes Arm forkortes ej,hans Visdom fór ej vild.Lad guldne hvert et Blad paa Kvist,lad falme alle Straa,Guds Kærlighed jeg véd for vist,omskiftes ikke saa." E,2 D,2 F,2 | %6
w: vel met al din|
 C,2 D,2 E,2"^5.6.7.8." F,2 | %7
w: Lyst og Sang, du|
"^Jeg véd, hvor Glæden har sit Hjem,naar øde Mark staar hvid,hint Frydekor fra Betlehemforstummer ingen Tid.Jeg véd, hvor Haabet grønnes da,naar al Ting falmer her,min Frelsers Træ paa Golgataen evig Krone bær.Lad synke kun, med Løvets Fald,hver Markens Blomst i Rad,min Tro paa ham bevare skalsit friske Hjerteblad.Han lover mig en evig Vaar,trods Vinterstorm og Død,thi Livet frem af Graven gaar,som Kristus gennembrød.                    Caspar Johannes Boye" G,2 E,2 C,2 D,2 | %8
w: kor- te Som- mer-|
 !fermata!G,,6 |] %9
w: stund!|

